flaticon/pins-and-locations/placeholder-23.svg

<svg xmlns="http://www.w3.org/2000/svg" width="32" height="32" viewBox="0 0 24 24">
    <path d="M 12.25 5.621094 C 12.167969 5.605469 12.085938 5.601562 12 5.601562 C 11.988281 5.601562 11.972656 5.601562 11.960938 5.601562 C 11.878906 5.597656 11.800781 5.597656 11.71875 5.601562 C 10.359375 5.640625 9.078125 6.398438 8.078125 7.761719 C 8 7.878906 8 8.078125 8.078125 8.199219 C 9.121094 9.878906 10.480469 10.800781 12 10.800781 C 13.480469 10.800781 14.878906 9.878906 15.921875 8.199219 C 16 8.039062 16 7.839844 15.878906 7.71875 C 14.824219 6.488281 13.550781 5.75 12.25 5.621094 Z M 12.800781 7.199219 C 12.800781 7.640625 12.441406 8 12 8 C 11.558594 8 11.199219 7.640625 11.199219 7.199219 C 11.199219 6.765625 11.550781 6.410156 11.984375 6.402344 C 12.027344 6.402344 12.066406 6.40625 12.109375 6.410156 C 12.496094 6.460938 12.800781 6.796875 12.800781 7.199219 Z M 11.960938 10 C 10.800781 10 9.71875 9.320312 8.878906 8.039062 C 9.363281 7.441406 9.902344 7 10.472656 6.726562 C 10.425781 6.875 10.398438 7.035156 10.398438 7.199219 C 10.398438 8.078125 11.121094 8.800781 12 8.800781 C 12.878906 8.800781 13.601562 8.078125 13.601562 7.199219 C 13.601562 7.082031 13.585938 6.96875 13.5625 6.859375 C 14.082031 7.136719 14.59375 7.535156 15.078125 8.039062 C 14.199219 9.320312 13.078125 10 11.960938 10 Z M 11.960938 10"/>
    <path d="M 12 0 C 7.601562 0 4 3.601562 4 8 C 4 10.160156 4.640625 11.480469 5.558594 13.28125 C 5.679688 13.558594 5.839844 13.839844 6 14.160156 C 8.238281 18.761719 11.640625 23.761719 11.679688 23.839844 C 11.761719 23.921875 11.878906 24 12 24 C 12.121094 24 12.238281 23.921875 12.320312 23.800781 C 12.359375 23.761719 15.761719 18.761719 18 14.160156 C 18.160156 13.839844 18.28125 13.558594 18.441406 13.28125 C 19.359375 11.480469 20 10.160156 20 8 C 20 3.601562 16.398438 0 12 0 Z M 17.71875 12.878906 C 17.601562 13.199219 17.441406 13.480469 17.28125 13.800781 C 15.480469 17.480469 12.921875 21.480469 12 22.839844 C 11.078125 21.480469 8.519531 17.519531 6.71875 13.800781 C 6.558594 13.519531 6.441406 13.199219 6.28125 12.921875 C 5.398438 11.160156 4.800781 9.960938 4.800781 8 C 4.800781 4.039062 8.039062 0.800781 12 0.800781 C 15.960938 0.800781 19.199219 4.039062 19.199219 8 C 19.199219 9.960938 18.601562 11.160156 17.71875 12.878906 Z M 17.71875 12.878906"/>
</svg>

<svg xmlns="http://www.w3.org/2000/svg" width="32" height="32" viewBox="0 0 24 24">
    <path d="M12.25 5.621a1.323 1.323 0 0 0-.25-.02h-.04a2.504 2.504 0 0 0-.241 0c-1.36.04-2.64.797-3.64 2.16a.438.438 0 0 0 0 .438C9.12 9.88 10.48 10.801 12 10.801c1.48 0 2.879-.922 3.922-2.602.078-.16.078-.36-.043-.48-1.055-1.23-2.328-1.969-3.629-2.098zM12.8 7.2a.802.802 0 0 1-1.6 0 .8.8 0 0 1 .784-.797c.043 0 .082.004.125.008a.8.8 0 0 1 .692.79zM11.96 10C10.8 10 9.72 9.32 8.88 8.04 9.363 7.44 9.902 7 10.473 6.726a1.575 1.575 0 0 0-.075.472c0 .88.723 1.602 1.602 1.602.879 0 1.602-.723 1.602-1.602 0-.117-.016-.23-.04-.34.52.278 1.032.676 1.516 1.18C14.2 9.32 13.078 10 11.961 10zm0 0"/>
    <path d="M12 0C7.602 0 4 3.602 4 8c0 2.16.64 3.48 1.559 5.281.12.278.28.559.441.88 2.238 4.6 5.64 9.6 5.68 9.679.082.082.199.16.32.16s.238-.078.32-.2c.04-.038 3.442-5.038 5.68-9.64.16-.32.281-.601.441-.879C19.36 11.481 20 10.161 20 8c0-4.398-3.602-8-8-8zm5.719 12.879c-.117.32-.278.601-.438.922-1.8 3.68-4.36 7.68-5.281 9.039-.922-1.36-3.48-5.32-5.281-9.04-.16-.28-.278-.6-.438-.878C5.398 11.16 4.801 9.96 4.801 8 4.8 4.04 8.039.8 12 .8c3.96 0 7.2 3.24 7.2 7.2 0 1.96-.598 3.16-1.481 4.879zm0 0"/>
</svg>
